common/icons/svgs/calendar.svg

<svg xmlns="http://www.w3.org/2000/svg" width="24" height="24" viewBox="0 0 24 24">
  <g fill="none" fill-rule="evenodd" transform="translate(-168 -66)">
    <rect width="504" height="450" fill="#FFF"/>
    <g transform="translate(168 66)">
      <rect width="24" height="24"/>
      <path fill="#000" fill-rule="nonzero" d="M18,4.5 L18,3 C18,2.44771525 17.5522847,2 17,2 C16.4477153,2 16,2.44771525 16,3 L16,4.5 L8,4.5 L8,3 C8,2.44771525 7.55228475,2 7,2 C6.44771525,2 6,2.44771525 6,3 L6,4.5 C3.790861,4.5 2,6.290861 2,8.5 L2,19.5 C2,21.709139 3.790861,23.5 6,23.5 L18,23.5 C20.209139,23.5 22,21.709139 22,19.5 L22,8.5 C22,6.290861 20.209139,4.5 18,4.5 Z M4,8.5 C4,7.3954305 4.8954305,6.5 6,6.5 L6,8 C6,8.55228475 6.44771525,9 7,9 C7.55228475,9 8,8.55228475 8,8 L8,6.5 L16,6.5 L16,8 C16,8.55228475 16.4477153,9 17,9 C17.5522847,9 18,8.55228475 18,8 L18,6.5 C19.1045695,6.5 20,7.3954305 20,8.5 L20,10 L4,10 L4,8.5 Z M20,19.5 C20,20.6045695 19.1045695,21.5 18,21.5 L6,21.5 C4.8954305,21.5 4,20.6045695 4,19.5 L4,12 L20,12 L20,19.5 Z"/>
      <path fill="#000" fill-rule="nonzero" d="M5.43,17.29 L7.43,17.29 L7.43,19.29 L5.43,19.29 L5.43,17.29 Z M8.91,13.88 L10.91,13.88 L10.91,15.88 L8.91,15.88 L8.91,13.88 Z M8.91,17.29 L10.91,17.29 L10.91,19.29 L8.91,19.29 L8.91,17.29 Z M12.38,13.88 L14.38,13.88 L14.38,15.88 L12.38,15.88 L12.38,13.88 Z M12.38,17.29 L14.38,17.29 L14.38,19.29 L12.38,19.29 L12.38,17.29 Z M15.86,13.88 L17.86,13.88 L17.86,15.88 L15.86,15.88 L15.86,13.88 Z"/>
    </g>
  </g>
</svg>

<svg xmlns="http://www.w3.org/2000/svg" viewbox="0 0 24 24"><path class="icon__shape" fill-rule="nonzero" d="M18 4.5V3a1 1 0 0 0-2 0v1.5H8V3a1 1 0 1 0-2 0v1.5a4 4 0 0 0-4 4v11a4 4 0 0 0 4 4h12a4 4 0 0 0 4-4v-11a4 4 0 0 0-4-4zm-14 4a2 2 0 0 1 2-2V8a1 1 0 1 0 2 0V6.5h8V8a1 1 0 0 0 2 0V6.5a2 2 0 0 1 2 2V10H4V8.5zm16 11a2 2 0 0 1-2 2H6a2 2 0 0 1-2-2V12h16v7.5z"/><path class="icon__shape" fill-rule="nonzero" d="M5.43 17.29h2v2h-2v-2zm3.48-3.41h2v2h-2v-2zm0 3.41h2v2h-2v-2zm3.47-3.41h2v2h-2v-2zm0 3.41h2v2h-2v-2zm3.48-3.41h2v2h-2v-2z"/></svg>
